X:99
T:Manchester Quadrille p3 Le Industrie
C:Ellis Knowles
B:Plain Brown Tune Book
M:2/4
L:1/16
Q:100
K:C
g4 ag^fe | e4 fede | c4 cdef | gag^f g2g2 | f4 gfef | d4 dcBA | G4 A2B2 | c2e2c2 z2 ||
d4 dfag | g4 c'4 | Bcde fgag | g3f e4 | d4 dfag | g4 c'4 | Bcde fgag | d4 c2 z2 ||
e6 gf | d6 fe | c2c2 G2AB | c2c2 cBcd | e6 gf | d6 fe | c2c2 G2AB | d4c2 z2 |]

